assets/vectors/decor/quote_upper_bracket.svg

<?xml version="1.0" encoding="UTF-8" standalone="no"?>
<svg
   width="76.445244"
   height="8.6404018"
   viewBox="0 0 318.52185 36.001674"
   version="1.1"
   id="svg1222"
   sodipodi:docname="Upper_bracket_edited.svg"
   inkscape:version="1.1.2 (0a00cf5339, 2022-02-04, custom)"
   xmlns:inkscape="http://www.inkscape.org/namespaces/inkscape"
   xmlns:sodipodi="http://sodipodi.sourceforge.net/DTD/sodipodi-0.dtd"
   xmlns="http://www.w3.org/2000/svg"
   xmlns:svg="http://www.w3.org/2000/svg">
  <defs
     id="defs1226" />
  <sodipodi:namedview
     id="namedview1224"
     pagecolor="#505050"
     bordercolor="#eeeeee"
     borderopacity="1"
     inkscape:pageshadow="0"
     inkscape:pageopacity="0"
     inkscape:pagecheckerboard="0"
     showgrid="false"
     inkscape:zoom="5.6041667"
     inkscape:cx="36.669145"
     inkscape:cy="-24.089219"
     inkscape:window-width="2560"
     inkscape:window-height="1377"
     inkscape:window-x="-8"
     inkscape:window-y="-8"
     inkscape:window-maximized="1"
     inkscape:current-layer="svg1222" />
  <g
     stroke-linecap="round"
     id="Layer_1_2"
     transform="translate(-246.96928,-399.63734)">
    <path
       d="m 250.44,432.23 c 0,0 -0.43,0.14 -0.43,0.14 -0.11,0.2 -0.22,0.41 -0.33,0.61 -0.13,0.24 -0.2,0.22 -0.21,-0.06 -0.04,-2.77 2.25,-8.21 3.6,-9.95 1.36,-1.69 5.06,-4.01 6.95,-4.76 2.18,-0.85 10.61,-3.2 11.96,-3.77 3.63,-1.57 8.13,-5.56 8.62,-7.6 0.23,-1.11 -0.57,-2.83 -1.54,-3.37 -1.04,-0.51 -3.68,-0.4 -4.8,0.34 -1.15,0.79 -2.61,3.02 -2.79,4.08 -0.16,1.26 -0.02,2.8 0.37,4 0.36,0.96 2.3,3.37 3.54,4.26 2.27,1.61 4.57,1.11 4.88,0.81 0,0 -0.81,-1.17 -0.81,-1.17"
       fill="none"
       stroke="#000000"
       stroke-width="5"
       stroke-opacity="1"
       stroke-linejoin="round"
       id="path1215" />
    <path
       d="m 293.95,415.31 c 0,0 -1.1,0.08 -1.1,0.08 0,0 -0.79,0.4 -0.79,0.4 21.04,-0.02 36.1,0.63 54.12,0.14 7.23,-0.11 20.28,-0.36 27.47,-1.37 9.24,-1.33 18.1,-3.93 19.29,-5.56 0.62,-0.88 0.52,-2.14 0.01,-3.27 -1.13,-0.51 -2.64,-0.68 -3.9,-0.17 -1.17,0.49 -2.9,1.84 -3.2,2.47 -0.32,0.74 -0.29,1.84 0.07,2.57 0.68,1.23 6.55,4 11.24,4.71 4.35,0.61 19.68,0.14 27.53,-0.13 13.07,-0.35 34.99,1.07 40.66,1.09 3.69,-0.02 15.04,-1.12 26.36,-0.81 7.84,0.27 27.31,1.19 29.24,0.85 0,0 -1.21,0.45 -1.21,0.45"
       fill="none"
       stroke="#000000"
       stroke-width="5"
       stroke-opacity="1"
       stroke-linejoin="round"
       id="path1217" />
    <path
       d="m 562.03,431.23 c 0,0 0.43,0.14 0.43,0.14 0.11,0.2 0.22,0.41 0.32,0.61 0.14,0.24 0.21,0.22 0.21,-0.06 0.05,-2.77 -2.24,-8.21 -3.6,-9.95 -1.36,-1.69 -5.06,-4.01 -6.95,-4.76 -2.17,-0.85 -10.6,-3.2 -11.95,-3.77 -3.63,-1.57 -8.13,-5.56 -8.62,-7.6 -0.23,-1.11 0.57,-2.83 1.54,-3.37 1.03,-0.51 3.68,-0.4 4.8,0.34 1.14,0.79 2.61,3.02 2.79,4.08 0.16,1.26 0.02,2.8 -0.37,4 -0.36,0.96 -2.31,3.37 -3.54,4.26 -2.27,1.61 -4.57,1.11 -4.88,0.81 0,0 0.81,-1.17 0.81,-1.17"
       fill="none"
       stroke="#000000"
       stroke-width="5"
       stroke-opacity="1"
       stroke-linejoin="round"
       id="path1219" />
  </g>
</svg>

<?xml version="1.0" encoding="UTF-8" standalone="no"?>
<!DOCTYPE svg PUBLIC "-//W3C//DTD SVG 1.1//EN" "http://www.w3.org/Graphics/SVG/1.1/DTD/svg11.dtd">
<svg width="192.00" height="144.00" viewBox="0.00 0.00 800.00 600.00" xmlns="http://www.w3.org/2000/svg" xmlns:xlink="http://www.w3.org/1999/xlink">
<g stroke-linecap="round" id="Layer_1_2">
<path d="M250.44,432.23 C250.44,432.23 250.01,432.37 250.01,432.37 C249.90,432.57 249.79,432.78 249.68,432.98 C249.55,433.22 249.48,433.20 249.47,432.92 C249.43,430.15 251.72,424.71 253.07,422.97 C254.43,421.28 258.13,418.96 260.02,418.21 C262.20,417.36 270.63,415.01 271.98,414.44 C275.61,412.87 280.11,408.88 280.60,406.84 C280.83,405.73 280.03,404.01 279.06,403.47 C278.02,402.96 275.38,403.07 274.26,403.81 C273.11,404.60 271.65,406.83 271.47,407.89 C271.31,409.15 271.45,410.69 271.84,411.89 C272.20,412.85 274.14,415.26 275.38,416.15 C277.65,417.76 279.95,417.26 280.26,416.96 C280.26,416.96 279.45,415.79 279.45,415.79" fill="none" stroke="rgb(0, 0, 0)" stroke-width="5.00" stroke-opacity="1.00" stroke-linejoin="round"/>
<path d="M293.95,415.31 C293.95,415.31 292.85,415.39 292.85,415.39 C292.85,415.39 292.06,415.79 292.06,415.79 C313.10,415.77 328.16,416.42 346.18,415.93 C353.41,415.82 366.46,415.57 373.65,414.56 C382.89,413.23 391.75,410.63 392.94,409.00 C393.56,408.12 393.46,406.86 392.95,405.73 C391.82,405.22 390.31,405.05 389.05,405.56 C387.88,406.05 386.15,407.40 385.85,408.03 C385.53,408.77 385.56,409.87 385.92,410.60 C386.60,411.83 392.47,414.60 397.16,415.31 C401.51,415.92 416.84,415.45 424.69,415.18 C437.76,414.83 459.68,416.25 465.35,416.27 C469.04,416.25 480.39,415.15 491.71,415.46 C499.55,415.73 519.02,416.65 520.95,416.31 C520.95,416.31 519.74,416.76 519.74,416.76" fill="none" stroke="rgb(0, 0, 0)" stroke-width="5.00" stroke-opacity="1.00" stroke-linejoin="round"/>
<path d="M562.03,431.23 C562.03,431.23 562.46,431.37 562.46,431.37 C562.57,431.57 562.68,431.78 562.78,431.98 C562.92,432.22 562.99,432.20 562.99,431.92 C563.04,429.15 560.75,423.71 559.39,421.97 C558.03,420.28 554.33,417.96 552.44,417.21 C550.27,416.36 541.84,414.01 540.49,413.44 C536.86,411.87 532.36,407.88 531.87,405.84 C531.64,404.73 532.44,403.01 533.41,402.47 C534.44,401.96 537.09,402.07 538.21,402.81 C539.35,403.60 540.82,405.83 541.00,406.89 C541.16,408.15 541.02,409.69 540.63,410.89 C540.27,411.85 538.32,414.26 537.09,415.15 C534.82,416.76 532.52,416.26 532.21,415.96 C532.21,415.96 533.02,414.79 533.02,414.79" fill="none" stroke="rgb(0, 0, 0)" stroke-width="5.00" stroke-opacity="1.00" stroke-linejoin="round"/>
</g>
</svg>
